!!!COM: Christian, Lemuel McPherson
!!!CDT: b. 1913
!!!OTL: National Anthem, Dominica
!!!ENC: Davis, Matthew J.
!!Vocal Line Only
**kern
*clefG2
*k[]
*C:
*M4/4
=1-
1r
=2
1r
==3
!Coda Symbol
4g
16c
16d
16e
16f
4g
4c
=4
4a
16f
16g
16a
16b
4cc
4a
=5
4.g
8cc
8b
8g
8f
8d
=6
1e
=7
4g
16c
16d
16e
16f
4g
4c
=8
4a
16f
16g
16a
16b
4cc
4a
=9
2.b
8g
8d
8g
8a
8g
=10
1g
=11
4g
16a
16g
16a
16b
4cc
4g
=12
4a
16b
16a
16b
16cc
4dd
4b
=13
4.cc
8a
4g
4e
=14
4d
8e
8f
2e
=15
4e
16a
16g#
16a
16b
4cc
4a
=16
4g
16dd
16b
16cc
16dd
4ff
4ee
=17
4ee
8.cc
16a
4g
4cc
=18
4cc
4b
2cc
!Repeat from Coda (measure 3) to the end
==|!
*-
